!!!SOCIAL_FUNCTION:	songs connected with the treatment of the sick
!!!PDT:	1932
!!!OTL: No_71_I_Will_Drive_the_Sickness_Out_of_You.krn
!!!REG: Wisconsin
!!!LANG: Non-Tone
!!!LING_GROUP: Algonquin
**kern
*staff1
=1-
*clefF4
*k[]
*M2/4
4r
8r
16c\LL
16c\JJ
=2
4c\
8c\L
8A\J
=3
4c\
8d\L
8c\J
=4||
*M3/4
8.A-\L
16A-\Jk
4G\
8G\
8r
=5||
*M2/4
4G\
8D\L
8D\J
=6
4G\
8G\L
8G\J
=7
4G\
8G\
8r
=8
4G\
8D\L
8D\J
=9
4G\
8G\L
8G\J
=10
4G\
16G\
16r
16c\LL
16c\JJ
=11
4c\
8c\L
8A\J
=12
4c\
8d\L
8c\J
=13||
*M3/4
8.A-\L
16A-\Jk
4G\
8G\
8r
=14||
*M2/4
4G\
8D\L
8D\J
=15
4G\
8G\L
8G\J
=16
4G\
8G\
8r
==
*-
